X:601
T:Louisburg Square
C:Traditional American???
L:1/8
S:Colin Hume's website,  colinhume.com  - chords can also be printed below the stave.
Q:3/8=120
M:6/8
R:Jig
K:G
P:A
Bc | "G"ddd dBc | ddd dBd | "C"g2g "D7"f2e | "G"d3- d2B |\
"Am"c2e "D"edc | "G"B2d "Em"G2B | "Am"A2B "D7"cBA | "G"G3 z :|
K:D
P:B
|: FG | "D"A2d "A7"c2e | "D"d2f agf | "Em"e2f "A7"gfe | "D"d2f AFG |\
"D"A2d "A7"c2e | "D"d2f agf | "Em"e2f "A7"gfe | "D"d3- d :|

